X: 32306
T: Pigeon On The Gate, The
R: reel
M: 4/4
K: Edorian
dc|BE ~E2 Bdcd|BE ~E2 dBAF|D2 (3FED ADFE|DEFA BAFA|
BE ~E2 Bdcd|BE ~E2 B2 AF|D2 FA dfec|dBAF E2:|
FA|Beed efed|(3Bcd ef gfed|Bddc d3 B|A2 FE DEFA|
Beed efed|(3Bcd ef g2 fg|af ge fd ec|dBAF E2:|

